X: 1
T: DICK SAND'S -- HORNPIPE
B: Ryan's Mammoth Collection of Fiddle Tunes
R: hornpipe
M: C|
L: 1/8
T: (Can be used as a clog.)
Z: Contributed 20010912192619 by John Chambers jmchambers:rcn.net
K: A
((3uefg) \
| a>ae>c A>cf>e | d>cB>A G>BE>G | A>Bc>d "4"e>cA>c | B>e^d>f e>ef>g |
| a>ae>c A>cf>e | d>cB>A G>BE>G | A>ae>c f>dB>G | A2c2A2 :|
|: (udc) \
| B>cB>A G>EF>G | A>Bc>d e>cA>c | d>cd>e f>ed>c | B>ed>f e>ef>g |
| ((3aba) e>c ((3fgf) d>B | ((3efe) c>A ((3ded) B>G | A>ae>c f>dB>G | A2c2A2 :|
